X:1
T: Miss Catherine Ann
T: 3x32S 3C (David Queen)
P: Catherine Ann's Strathspey
C: by David Queen
C: Arr. T. Traub 6/2/08
R: Strathspey
K: Bb
M: 4/4
L: 1/8
dc|"Bb"B3 F D3 B,|"Eb"EFGE "F"F2 GA|"Bb"Bcde f3 d|"Cm"edcB "F"c2 dc|"Bb"B3 F D3 B,|"Eb"EFGE "F"F2 GA|
"Bb"Bcde f2 d2|"F"c2 B2 "Bb"B2 de|| "Bb"f3 g fdcd|"Cm"edcB "F"c2 de|"Bb"f2 ga b3 a|
"Eb"g2 b2 f3 f|"Eb"g2 b2 f3 d|"Cm"edcB "F"c2 dc|"Bb"Bcde f2 d2 |"Cm   F7"c6 "Bb"B2 |]
